X: 20401
T: John Doherty's
R: barndance
M: 4/4
K: Dmajor
|:A>F|D2 (3EFG A2 (3ABc|d>Ae>A d2 A2|G2 F>G A>FD>E|F>EE>^D E>=d (3AFE|
(3DED F>G A2 B>c|d2 e>c d2 A>d|(3GBG A>B A>F (3EFG|(3FAF D2 D2:|
|:(3Acd|(3efe A>^G A2 (3gfe|d2 D2 D2 f>e|d>cB>A ^G>AB>G|A>Ec>e E>G (3GFE|
D>EF>G A>Bc>e|d2 e>f d2 A2|G2 (3EFG A>F (3EGE|(3FAF D2 D2:|

